X:199
T:Polska efter Bengt H{\aa}kansson
R:sl\"angpolska
H:efter Bengt H{\aa}kansson (1842-1926), J\"at, som trakterade b{\aa}de fl\"ojt
H:och fiol. Han sj\"ong ocks{\aa} g\"arna visor till psalmodikonackompanjemang.
A:Sm{\aa}land
B:Sm{\aa}l\"andsk musiktradition I:309, ur A Str\"ombergs melodisamling
Z:id:hn-sp-199
M:3/4
L:1/16
K:G
G2[B2D2] [B2D2][B2D2] [B2D2][B2D2] | cBAG FGAB c2A2 |
G2[B2D2] [B2D2][B2D2] [B2D2][B2D2] | cBAG FGAB c2A2 |
d2(ef g2)d2 cBcA | F2G2 G4 z4 :||: (df)f(f fa)af Tf2d2 |
(dg)g(g gb)bg Tg2f2 | (df)f(f fa)af Tf2d2 | (dg)g(g gb)bg Tg2f2 | 
efge fgaf Tg2d2 | cBcA F2G2 G4 :|
<end>
<start>
